X: 1
T: STEAMBOAT -- HORNPIPE
B: Ryan's Mammoth Collection of Fiddle Tunes
R: hornpipe
M: C|
L: 1/8
Z: Contributed 20000821220850 by John Chambers John.Chambers:weema.com
K: G
ud2 \
| g2b>g d2g>d | B2d>B G2B>G | E2c>A F2d>c | c2B2 B2d2 |
| g2b>g d2g>d | B2d>B G2B>G | Aedc BAGF | G2B2G2 :|
|: vBc \
| d^cde dBGB | cBcd cAFA | GABc defg | ecBA GFED |
| d^cde dBGB | cBcd cAFA | Ggec BdFA | G2B2G2 :|
